src/assets/img/providers-white/spribe.svg

<svg width="70" height="28" viewBox="0 0 70 28" fill="none" xmlns="http://www.w3.org/2000/svg">
<path d="M0.940743 5.80585C0.940743 2.11184 2.75655 0.000976562 6.28912 0.000976562C9.82169 0.000976562 11.6375 2.11184 11.6375 5.80585V6.53146H8.20397V5.57497C8.20397 3.92586 7.54368 3.2992 6.38816 3.2992C5.23265 3.2992 4.57236 3.92586 4.57236 5.57497C4.57236 10.3244 11.6705 11.2149 11.6705 17.8114C11.6705 21.5054 9.82169 23.6163 6.25611 23.6163C2.69052 23.6163 0.841699 21.5054 0.841699 17.8114V16.3931H4.27523V18.0423C4.27523 19.6914 5.00155 20.285 6.15706 20.285C7.31258 20.285 8.0389 19.6914 8.0389 18.0423C8.0389 13.2928 0.940743 12.4023 0.940743 5.80585Z" fill="white"/>
<path d="M19.0996 0.264833C22.7312 0.264833 24.514 2.27675 24.514 5.97076V8.97214C24.514 12.6662 22.7312 14.6781 19.0996 14.6781H17.3828V23.3524H13.7512V0.264833H19.0996ZM19.0996 3.56306H17.3828V11.3798H19.0996C20.2551 11.3798 20.8824 10.8521 20.8824 9.20302V5.73988C20.8824 4.09077 20.2551 3.56306 19.0996 3.56306Z" fill="white"/>
<path d="M37.5856 23.3524H33.8879C33.6898 22.7587 33.5578 22.3959 33.5578 20.5159V16.8879C33.5578 14.744 32.8315 13.9525 31.1807 13.9525H29.9262V23.3524H26.2945V0.264833H31.775C35.5387 0.264833 37.1564 2.01289 37.1564 5.57497V7.389C37.1564 9.76372 36.397 11.3139 34.7793 12.0725C36.5951 12.8311 37.1894 14.5791 37.1894 16.9868V20.5489C37.1894 21.6703 37.2224 22.4949 37.5856 23.3524ZM31.6759 3.56306H29.9262V10.6542H31.3458C32.6994 10.6542 33.5248 10.0606 33.5248 8.21355V5.93778C33.5248 4.28867 32.9635 3.56306 31.6759 3.56306Z" fill="white"/>
<path d="M39.5778 23.3524V0.264833H43.2094V23.3524H39.5778Z" fill="white"/>
<path d="M51.3452 0.264833C55.1089 0.264833 56.7266 2.01289 56.7266 5.57497V6.39953C56.7266 8.77425 56.0003 10.2914 54.3826 11.05C56.3304 11.8086 57.0898 13.5567 57.0898 15.9974V17.8773C57.0898 21.4394 55.2079 23.3524 51.5763 23.3524H45.8648V0.264833H51.3452ZM51.1141 12.963H49.4964V20.0542H51.5763C52.7979 20.0542 53.4581 19.4935 53.4581 17.7784V15.7665C53.4581 13.6226 52.7648 12.963 51.1141 12.963ZM51.2462 3.56306H49.4964V9.66477H50.916C52.2696 9.66477 53.095 9.07109 53.095 7.22408V5.93778C53.095 4.28867 52.5337 3.56306 51.2462 3.56306Z" fill="white"/>
<path d="M62.9086 3.56306V9.99459H67.8938V13.2928H62.9086V20.0542H69.1814V23.3524H59.277V0.264833H69.1814V3.56306H62.9086Z" fill="white"/>
<path d="M0.710938 24.7804H69.2887V28.001H0.710938V24.7804Z" fill="white"/>
</svg>

<svg xmlns="http://www.w3.org/2000/svg" width="70" height="28" fill="none"><path fill="#fff" d="M.94 5.806C.94 2.112 2.758 0 6.29 0c3.532 0 5.347 2.11 5.347 5.805v.725H8.204v-.956c0-1.65-.66-2.276-1.816-2.276-1.155 0-1.816.627-1.816 2.276 0 4.75 7.099 5.64 7.099 12.236 0 3.694-1.85 5.805-5.415 5.805S.842 21.506.842 17.811v-1.418h3.433v1.65c0 1.648.727 2.242 1.882 2.242 1.156 0 1.882-.594 1.882-2.243 0-4.75-7.098-5.64-7.098-12.236ZM19.1.265c3.631 0 5.414 2.012 5.414 5.706v3.001c0 3.694-1.783 5.706-5.414 5.706h-1.717v8.674H13.75V.265H19.1Zm0 3.298h-1.717v7.817H19.1c1.155 0 1.782-.528 1.782-2.177V5.74c0-1.65-.627-2.177-1.782-2.177ZM37.586 23.352h-3.698c-.198-.593-.33-.956-.33-2.836v-3.628c0-2.144-.727-2.936-2.377-2.936h-1.255v9.4h-3.631V.265h5.48c3.764 0 5.381 1.748 5.381 5.31v1.814c0 2.375-.759 3.925-2.377 4.683 1.816.76 2.41 2.507 2.41 4.915v3.562c0 1.121.033 1.946.397 2.803Zm-5.91-19.789h-1.75v7.091h1.42c1.353 0 2.179-.593 2.179-2.44V5.938c0-1.65-.561-2.375-1.85-2.375ZM39.578 23.352V.265h3.631v23.087h-3.631ZM51.345.265c3.764 0 5.382 1.748 5.382 5.31V6.4c0 2.374-.727 3.891-2.344 4.65 1.947.759 2.707 2.507 2.707 4.947v1.88c0 3.562-1.882 5.475-5.514 5.475h-5.711V.265h5.48Zm-.23 12.698h-1.619v7.091h2.08c1.222 0 1.882-.56 1.882-2.276v-2.011c0-2.144-.693-2.804-2.344-2.804Zm.131-9.4h-1.75v6.102h1.42c1.354 0 2.179-.594 2.179-2.44V5.937c0-1.65-.561-2.375-1.849-2.375ZM62.909 3.563v6.432h4.985v3.298h-4.985v6.761h6.272v3.298h-9.904V.265h9.904v3.298H62.91ZM.71 24.78H69.29v3.221H.71v-3.22Z"/></svg>
